X: 45
T: No_139_Sandhill_Crane_Dance_Song_(c).krn
N: Derived from No_139_Sandhill_Crane_Dance_Song_(c).krn
%%abc-version 2.0
%%abcx-abcm2ps-target-version 5.9.1 (29 Sep 2008)
%%abc-creator hum2abc beta
%%abcx-conversion-date 2019/03/15 08:38:45
%%humdrum-veritas 2054522935
%%humdrum-veritas-data 836039002
%%linebreak <none>
%%barnumbers 0
L: 1/8
M: 5/8
K: C clef=bass
[K:clef=bass][M:5/8]z4z/ B,/ ]|:  
B,3/B,/A,F, z | 
E,3/E,/E,E, z | 
E,3/E,/E,E,2 | 
F,E,3//C,//C,F, z | 
E,3/E,/E,E, z | 
E,3/E,/E,E,2 ||  
[M:7/8]F,//E,3//-E,F,E,3//C,//C,F, z ||  
[M:5/8]E,3/E,/E,E, z | 
E,3/E,/E,E,2 ||  
[M:7/8]F,E,3//E,//F,/E,/-E,3//C,//C,F, z ||  
[M:5/8]E,3/E,/E,E, z | 
E,3/E,/E,E,2 | 
E,/E,/E,E,2z



